!!!!SEGMENT: pl-cz--iii-573--003_rygall-ignacy--rorate-caeli-mittit-ad-virginem.krn
!!!cenid: 18xx:1033
!!!COM: Rygall, Ignacy
!!!COM-rismID: pe30110281
!!!CDT: <1750->1799
!!!CNT:
!!!OPR: Rorate caeli
!!!OTL: Mittit ad virginem
!!!OMV: 003
!!!PDT:
!!!AGN: Sacred
!!!SMS-siglum: PL-CZ
!!!SMS-shelfmark: III-573
!!!SMS-shelfwork: 001-003 M
!!!SMS-variant:
!!!SMS-altvar:
!!!NIFC-rismSourceID: 300001133
!!!NIFC-islandoraID: pl-cz:39252
!!!URL-pdf-islandora: https://repozytorium.nifc.pl/islandora/object/pl-cz%3A39252/datastream/PDF/view
!!!URL-scan:
!!!ONB-nifc: UWAGA: części Rorate caeli: Intonatio, Benedixisti Domine, Mittit ad virginem, Zdrowaś bądź Maria, Suer bientium, Maryja wielebna, Qui nobis tribuat, Łaskiś pełna Pańskiej
!!!OMD:
!!!OMD-mod: Andantino
!!!AIN: 1 alto 1 bass 2 cor 2 oboe 1 organ 1 soprn 1 tenor 1 timpa 2 viola 3 violn
!!!key: G
**kern	**kern	**kern	**kern	**kern	**kern	**kern	**text	**kern	**text	**kern	**text	**kern	**text	**kern	**kern	**kern	**kern	**kern
*	*group4	*group4	*group4	*group4	*group4	*group3	*	*group3	*	*group3	*	*group3	*	*	*group2	*group2	*group1	*group1
*part15	*part14	*part13	*part12	*part11	*part10	*part9	*part9	*part8	*part8	*part7	*part7	*part6	*part6	*part5	*part4	*part3	*part2	*part1
*staff15	*staff14	*staff13	*staff12	*staff11	*staff10	*staff9	*staff9	*staff8	*staff8	*staff7	*staff7	*staff6	*staff6	*staff5	*staff4	*staff3	*staff2	*staff1
*I"Organo	*I"Viola 2da.	*I"Alto Viola Prima.	*I"Violini Groſso	*I"Violino Secondo.	*I"Violino Primo	*I"Baſso	*	*I"Tenore	*	*I"Alto	*	*I"Sopran	*	*I"Tympano in D. A.	*I"Corno IIdo in G.	*I"Corno 1mo iṅ G.	*I"Oboe IIdo	*I"Oboe 1mo
*mI"Organo	*mI"Viola II	*mI"Viola I	*mI"Violino grosso	*mI"Violino II	*mI"Violino I	*mI"Basso	*	*mI"Tenore	*	*mI"Alto	*	*mI"Soprano	*	*mI"Timpani in D.A.	*mI"Corno II in G	*mI"Corno I in G	*mI"Oboe II	*mI"Oboe I
*I'org	*I'vla 2	*I'vla 1	*I'vl grosso	*I'vl 2	*I'vl 1	*I'B	*	*I'T	*	*I'A	*	*I'S	*	*I'timp	*I'cor 2 in G	*I'cor 1 in G	*I'ob 2	*I'ob 1
*Iorgan	*Iviola	*Iviola	*Ivioln	*Ivioln	*Ivioln	*Ibass	*	*Itenor	*	*Ialto	*	*Isoprn	*	*Itimpa	*Icor	*Icor	*Ioboe	*Ioboe
*ICklav	*ICstr	*ICstr	*ICstr	*ICstr	*ICstr	*ICvox	*	*ICvox	*	*ICvox	*	*ICvox	*	*ICidio	*ICbras	*ICbras	*ICww	*ICww
*IGcont	*	*	*	*	*	*IGcoro	*	*IGcoro	*	*IGcoro	*	*IGcoro	*	*	*	*	*	*
*	*	*	*tacet	*	*	*	*	*	*	*	*	*	*	*tacet	*	*	*	*
*clefF4	*clefC3	*clefC3	*clefG2	*clefG2	*clefG2	*clefF4	*	*clefC4	*	*clefC3	*	*clefC1	*	*	*clefG2	*clefG2	*clefG2	*clefG2
*	*	*	*	*	*	*	*	*mclefGv2	*	*mclefG2	*	*mclefG2	*	*	*	*	*	*
*	*	*	*	*	*	*	*	*	*	*	*	*	*	*	*ITrd3c5	*ITrd3c5	*	*
*k[f#]	*k[f#c#]	*k[f#c#]	*k[f#]	*k[f#]	*k[f#]	*k[f#]	*	*k[f#]	*	*k[f#]	*	*k[f#]	*	*	*k[f#]	*k[f#]	*k[f#]	*k[f#]
*	*mk[f#]	*mk[f#]	*	*	*	*	*	*	*	*	*	*	*	*	*	*	*	*
*G:	*G:	*G:	*G:	*G:	*G:	*G:	*	*G:	*	*G:	*	*G:	*	*G:	*G:	*G:	*G:	*G:
*M3/4	*M3/4	*M3/4	*M3/4	*M3/4	*M3/4	*M3/4	*	*M3/4	*	*M3/4	*	*M3/4	*	*	*M3/4	*M3/4	*M3/4	*M3/4
=1	=1	=1	=1	=1	=1	=1	=1	=1	=1	=1	=1	=1	=1	=1	=1	=1	=1	=1
!LO:MO:mod=*null:null	!	!	!	!	!	!	!	!	!	!	!	!	!	!	!	!	!	!
*2\right	*	*	*	*	*	*	*	*	*	*	*	*	*	*	*	*	*	*
!	!LO:TX:t=P:problem=przy kluczu błędnie f# c#:mod=	!LO:TX:t=P:problem=przy kluczu błędnie f# c#:mod=	!LO:TX:t=P:problem=partia nie występuje w części Mittit ad Virginem:mod=	!	!	!	!	!LO:TX:t=P:problem=przy kluczu F# f#:mod=	!	!	!	!	!	!LO:TX:a:t=Mittit ad Virginem Tacet	!LO:TX:a:B:t=Andatino:mod=	!LO:TX:a:B:t=Andatiino:mod=	!	!
2G\	4r	4r	2.ryy	4b\	4gg\	4G\	Mit-	4d\	Mit-	4b\	Mit-	4gg\	Mit-	2.ryy	4r	4r	4b\	4gg\
.	4b\	4dd\	.	4b\	4dd\	4D\	-tit	4d\	-tit	4b\	-tit	4dd\	-tit	.	4b\	4dd\	4r	4r
4r	4b\	4dd\	.	4b\	4dd\	4BB\	ad	4B\	ad	4b\	ad	4dd\	ad	.	4b\	4dd\	4r	4r
=2	=2	=2	=2	=2	=2	=2	=2	=2	=2	=2	=2	=2	=2	=2	=2	=2	=2	=2
!	!	!	!	!	!	!	!LO:MO:mod=Vir-	!	!	!	!	!	!	!	!	!	!	!
4G\	4.b\	4.dd\	2.ryy	4.b\	4.dd\	4.GG/	vir-	4.G\	Vir-	4.b\	vir-	4.dd\	Vir-	2.ryy	4.b\	4.dd\	4b\	4gg\
!LO:SIC:s=4GG	!	!	!	!	!	!	!	!	!	!	!	!	!	!	!	!	!	!
4GG|>/	.	.	.	.	.	.	.	.	.	.	.	.	.	.	.	.	4r	4r
!	!LO:SIC:s=8cc\	!	!	!	!	!	!	!	!	!	!	!	!	!	!	!	!	!
.	8cc#\	8ee\	.	8cc\	8ee\	8G\	-gi-	8G\	-gi-	8cc\	-gi-	8ee\	-gi-	.	8cc\	8ee\	.	.
4r	4b\	4dd\	.	4b\	4dd\	4GG/	-nem	4G\	-nem	4b\	-nem	4dd\	-nem	.	4b\	4dd\	4r	4r
=3	=3	=3	=3	=3	=3	=3	=3	=3	=3	=3	=3	=3	=3	=3	=3	=3	=3	=3
2G\	4b\	4r	2.ryy	4b\	4gg\	4G\	non	4G\	non	4b\	non	4gg\	non	2.ryy	4b\	4r	4b\	4gg\
.	4g\	4b\	.	4g\	4b\	4D\	quem-	4G\	quem-	4d\	quem-	4b\	quem-	.	4g\	4b\	4r	4r
4r	4g\	4b\	.	4g\	4b\	4BB\	-vis	4G\	-vis	4d\	-vis	4b\	-vis	.	4g\	4b\	4r	4r
=4	=4	=4	=4	=4	=4	=4	=4	=4	=4	=4	=4	=4	=4	=4	=4	=4	=4	=4
4r	4.g\	4.b\	2.ryy	4.g\	4.b\	4.GG/	An-	4.G/	An-	4.d\	An-	4.b\	An-	2.ryy	4.g\	4.b\	4b\	4gg\
4G\	.	.	.	.	.	.	.	.	.	.	.	.	.	.	.	.	4r	4r
!	!	!LO:SIC:s=8cc\	!	!	!	!	!	!	!	!	!	!	!	!	!	!	!	!
.	8a\	8cc#\	.	8a\	8cc\	8G\	-ge-	8G/	-ge-	8e\	-ge-	8cc\	-ge-	.	8a\	8cc\	.	.
4GG/	4g\	4b\	.	4g\	4b\	4GG/	-lum	4G/	-lum	4d\	-lum	4b\	-lum	.	4g\	4b\	4r	4r
=5	=5	=5	=5	=5	=5	=5	=5	=5	=5	=5	=5	=5	=5	=5	=5	=5	=5	=5
!	!	!	!	!	!	!	!LO:MO:mod=sed	!	!LO:MO:mod=sed	!	!LO:MO:mod=sed	!	!LO:MO:mod=sed	!	!	!	!	!
4F#\	4d\	4a\	2.ryy	4f#/	4a\	4F#\	Sed	4A\	Sed	4f#\	Sed	4a\	Sed	2.ryy	4d/	4a\	4ff#\	4aa\
4D\	4d\	4a\	.	8f#/L	8a\L	4D\	for-	4A\	for-	4f#\	for-	4a\	for-	.	4d/	4a\	4ff#\	4aa\
.	.	.	.	8a/	8cc\	.	.	.	.	.	.	.	.	.	.	.	.	.
!	!LO:TX:a:t=g:mod=	!	!	!	!	!	!	!	!	!LO:SIC:s=4g	!	!	!	!	!	!	!	!
4G\	4g\	4b\	.	8g/	8b\	4G\	-ti-	4B\	-ti-	4f#\	-ti-	4b\	-ti-	.	4g\	4b\	4gg\	4bb\
.	.	.	.	8b/J	8dd\J	.	.	.	.	.	.	.	.	.	.	.	.	.
=6	=6	=6	=6	=6	=6	=6	=6	=6	=6	=6	=6	=6	=6	=6	=6	=6	=6	=6
!!LO:MO:ori
!	!	!LO:SIC:s=4cc\	!	!	!	!	!	!	!	!	!	!	!	!	!	!	!	!
4A\	4a\	4cc#\	2.ryy	4b\	4dd\	4A\	-tu-	2c\	-tudi-	4.a\	-tu-	4.cc\	-tu-	2.ryy	4a\	4cc\	4aa\	4ccc\
4D\	4d\	4a\	.	4a\	4cc\	4D\	-di-	.	.	.	.	.	.	.	4d/	4b\	4ff#\	4aa\
.	.	.	.	.	.	.	.	.	.	8a\	-di-	8cc\	-di-	.	.	.	.	.
4G\	4g\	4b\	.	4g\	4b\	4G\	-nem	4d\	-nem	4g\	-nem	4b\	-nem	.	4g\	4cc\	4gg\	4bb\
!	!	!	!	!	!	!	!	!	!	!	!	!LO:LB:g=original	!	!	!	!	!	!
!!LO:MO:mod
!! 4A\	4a\	4cc\	2.ryy	4a\	4cc\	4A\	-tu-	4c\	-tu-	4.a\	-tu-	4.cc\	-tu-	2.ryy	4a\	4cc\	4aa\	4ccc\
!! 4D\	4d\	4a\	.	4a\	4cc\	4D\	-di-	4c\	-di-	.	.	.	.	.	4d/	4a\	4ff#\	4aa\
!! .	.	.	.	.	.	.	.	.	.	8a\	-di-	8cc\	-di-	.	.	.	.	.
!! 4G\	4g\	4b\	.	4g\	4b\	4G\	-nem	4d\	-nem	4g\	-nem	4b\	-nem	.	4g\	4b\	4gg\	4bb\
!! !	!	!	!	!	!	!	!	!	!	!	!	!LO:LB:g=original	!	!	!	!	!	!
!!LO:MO:end
=7	=7	=7	=7	=7	=7	=7	=7	=7	=7	=7	=7	=7	=7	=7	=7	=7	=7	=7
!	!LO:SIC:s=4cc\	!	!	!	!	!	!LO:MO:mod=su-	!	!	!	!LO:MO:mod=su-	!	!LO:MO:mod=su-	!	!	!	!	!
4c\	4cc#\	4ee\	2.ryy	4cc\	4ee\	4c\	Su-	4c\	su-	4cc\	Su-	4ee\	Su-	2.ryy	4cc\	4ee\	1.r	1.r
!	!LO:SIC:s=8cc\L	!	!	!LO:SIC:s=8ccL	!	!	!	!	!	!	!	!	!	!	!	!	!	!
4A\	8cc#\L	8ee\L	.	(>8cc\L	8ee\L	4A\	-um	8c\L	-um	8cc\L	-um	8ee\L	-um	.	8cc\L	8ee\L	.	.
!	!	!	!	!LO:SIC:s=8b	!	!	!	!	!	!LO:SIC:s=8bJ	!	!	!	!	!	!	!	!
.	8b\	8dd\	.	8b\)	8dd\	.	.	8B\J	.	8b\	.	8dd\J	.	.	8b\	8dd\	.	.
!	!	!LO:SIC:s=8cc\	!	!LO:SIC:s=8a	!	!	!	!	!	!LO:SIC:s=8aL	!	!	!	!	!	!	!	!
4c#X\	8a\	8cc#\	.	(>8a\	8cc\	4c#X\	Ar-	8c\L	Ar-	8a\	Ar-	8cc\L	Ar-	.	8a\	8cc\	.	.
!	!	!	!	!LO:SIC:s=8gJ	!	!	!	!	!	!	!	!	!	!	!	!	!	!
.	8g\J	8b\J	.	8g\J)	8b\J	.	.	8B\J	.	8g\J	.	8b\J	.	.	8g\J	8b\J	.	.
!	!	!	!	!	!	!	!	!LO:LB:g=original	!	!LO:LB:g=original	!	!	!	!	!	!	!	!
=8	=8	=8	=8	=8	=8	=8	=8	=8	=8	=8	=8	=8	=8	=8	=8	=8	=8	=8
!	!	!	!	!LO:SIC:s=8gL	!	!	!	!	!LO:MO:mod=-chan-	!	!LO:MO:mod=-chan-	!	!LO:MO:mod=-chan-	!	!	!	!	!
4d\	4a\	4a\	2.ryy	(<8g/L	8b/L	16d\	-chan-	16B\	-han-	16g\	-han-	16b\	-han-	2.ryy	4a\	4a\	.	.
.	.	.	.	.	.	16D\	-ge-	16A\	-ge-	16f#\	-ge-	16a\	-ge-	.	.	.	.	.
!	!	!	!	!	!	!LO:MO:mod=!null:null	!	!LO:MO:mod=!null:null	!	!LO:MO:mod=!null:null	!	!LO:MO:mod=!null:null	!	!	!	!	!	!
!	!	!	!	!	!	!LO:N:vis=4	!	!LO:N:vis=4	!	!LO:N:vis=4	!	!LO:N:vis=4	!	!	!	!	!	!
.	.	.	.	8f#/	8a/J	4.D\	-lum	4.A\	-lum	4.f#\	-lum	4.a\	-lum	.	.	.	.	.
4A\	4r	4r	.	8e/	8g/L	.	.	.	.	.	.	.	.	.	4r	4r	.	.
.	.	.	.	8d/	8f#/	.	.	.	.	.	.	.	.	.	.	.	.	.
!	!	!	!	!	!	!	!	!LO:TX:t=P:problem=brak kreski taktowej:mod=	!	!LO:TX:t=P:problem=brak kreski taktowej:mod=	!	!	!	!	!	!	!	!
4D\	4r	4r	.	8c#X/	8e/	4r	.	4r	.	4r	.	4r	.	.	4r	4r	.	.
!	!	!	!	!LO:SIC:s=8dJ	!	!	!	!	!	!	!	!	!	!	!	!	!	!
.	.	.	.	8d/J)	8d/J	.	.	.	.	.	.	.	.	.	.	.	.	.
!	!	!	!	!LO:LB:g=original	!LO:LB:g=original	!LO:LB:g=original	!	!	!	!	!	!	!	!	!	!	!	!
=9	=9	=9	=9	=9	=9	=9	=9	=9	=9	=9	=9	=9	=9	=9	=9	=9	=9	=9
!	!LO:MO:mod=*null:null	!LO:MO:mod=*null:null	!	!	!	!	!	!	!	!	!	!	!	!	!	!LO:MO:mod=*null:null	!	!LO:MO:mod=*null:null
*	*2\right	*2\right	*	*	*	*	*	*	*	*	*	*	*	*	*	*2\right	*	*2\right
!	!	!	!	!	!	!LO:TX:a:t=4:mod=	!	!	!	!	!	!	!	!	!	!	!	!
8F#\L	2d\	2a\	2.ryy	8d/	4aa\	0.r	.	0.r	.	0.r	.	0.r	.	2.ryy	2d/	2a\	2a\	2ff#\
8D\	.	.	.	4d/	.	.	.	.	.	.	.	.	.	.	.	.	.	.
8F#\	.	.	.	.	4cc\	.	.	.	.	.	.	.	.	.	.	.	.	.
8D\	.	.	.	4d/	.	.	.	.	.	.	.	.	.	.	.	.	.	.
8F#\	4d\	4a\	.	.	4cc\	.	.	.	.	.	.	.	.	.	4d/	4a\	4a\	4ff#\
8D\J	.	.	.	8d/	.	.	.	.	.	.	.	.	.	.	.	.	.	.
!LO:LB:g=original	!	!LO:LB:g=original	!	!	!	!	!	!	!	!	!	!	!	!	!	!	!	!
=10	=10	=10	=10	=10	=10	=10	=10	=10	=10	=10	=10	=10	=10	=10	=10	=10	=10	=10
8G\L	4g\	4b\	2.ryy	8d/	8cc\L	.	.	.	.	.	.	.	.	2.ryy	4g\	4a\	4b\	4gg\
8D\	.	.	.	4d/	8b\	.	.	.	.	.	.	.	.	.	.	.	.	.
8G\	4r	4r	.	.	8ee\	.	.	.	.	.	.	.	.	.	4r	4r	4r	4r
8D\	.	.	.	4d/	8dd\J	.	.	.	.	.	.	.	.	.	.	.	.	.
8G\	4r	4r	.	.	4dd\	.	.	.	.	.	.	.	.	.	4r	4r	4r	4r
8D\J	.	.	.	8d/	.	.	.	.	.	.	.	.	.	.	.	.	.	.
!	!LO:LB:g=original	!	!	!	!	!	!	!	!	!	!	!	!	!	!	!	!	!LO:LB:g=original
=11	=11	=11	=11	=11	=11	=11	=11	=11	=11	=11	=11	=11	=11	=11	=11	=11	=11	=11
8A\L	2d\	2a\	2.ryy	8d/	4dd\	.	.	.	.	.	.	.	.	2.ryy	2d/	2a\	4ff#\	4aa\
8D\	.	.	.	4d/	.	.	.	.	.	.	.	.	.	.	.	.	.	.
8A\	.	.	.	.	4f#/	.	.	.	.	.	.	.	.	.	.	.	4cc\	4cc\
8D\	.	.	.	4d/	.	.	.	.	.	.	.	.	.	.	.	.	.	.
8A\	4d\	4a\	.	.	4f#/	.	.	.	.	.	.	.	.	.	4d/	4a\	4a\	4cc\
8D\J	.	.	.	8d/	.	.	.	.	.	.	.	.	.	.	.	.	.	.
=12	=12	=12	=12	=12	=12	=12	=12	=12	=12	=12	12	=12	=12	=12	=12	=12	=12	=12
8B\L	4g\	4b\	2.ryy	8d/	8f#/L	.	.	.	.	.	.	.	.	2.ryy	4g\	4b\	8a\L	8cc\L
8D\	.	.	.	4d/	8g/J	.	.	.	.	.	.	.	.	.	.	.	8g\J	8b\J
8B\	4r	4r	.	.	2g/	.	.	.	.	.	.	.	.	.	4r	4r	4g\	4b\
8D\	.	.	.	4d/	.	.	.	.	.	.	.	.	.	.	.	.	.	.
8B\	4r	4r	.	.	.	.	.	.	.	.	.	.	.	.	4r	4r	4r	4r
8D\J	.	.	.	8d/	.	.	.	.	.	.	.	.	.	.	.	.	.	.
!	!	!	!	!	!	!	!	!	!	!	!	!	!	!	!LO:LB:g=original	!LO:LB:g=original	!LO:LB:g=original	!
=13	=13	=13	=13	=13	=13	=13	=13	=13	=13	=13	=13	=13	=13	=13	=13	=13	=13	=13
4G\	4r	4r	2.ryy	0.r	0.r	4G\	A-	0.r	.	4b\	A-	4gg\	A-	2.ryy	4r	4r	4b\	4gg\
4GG/	4b\	4dd\	.	.	.	4G\	-ma-	.	.	4b\	-ma-	4dd\	-ma-	.	4b\	4dd\	4r	4r
4r	4b\	4dd\	.	.	.	4G\	-tor	.	.	4b\	-tor	4dd\	-tor	.	4b\	4dd\	4r	4r
=14	=14	=14	=14	=14	=14	=14	=14	=14	=14	=14	=14	=14	=14	=14	=14	=14	=14	=14
4G\	4.b\	4.dd\	2.ryy	.	.	4.G\	ho-	.	.	4.b\	ho-	4.dd\	ho-	2.ryy	4.b\	4.dd\	2.r	2.r
4D\	.	.	.	.	.	.	.	.	.	.	.	.	.	.	.	.	.	.
!	!LO:SIC:s=8cc	!	!	!	!	!	!	!	!	!	!	!	!	!	!	!	!	!
.	8cc#\	8ee\	.	.	.	8D\	-mi-	.	.	8cc\	-mi-	8ee\	-mi-	.	8cc\	8ee\	.	.
4GG/	4b\	4dd\	.	.	.	4G\	-nis	.	.	4b\	-nis	4dd\	-nis	.	4b\	4dd\	.	.
=15	=15	=15	=15	=15	=15	=15	=15	=15	=15	=15	=15	=15	=15	=15	=15	=15	=15	=15
!	!	!	!	!	!	!	!	!	!	!	!LO:MO:mod=a-	!	!LO:MO:mod=a-	!	!	!	!	!
4G\	4b\	4dd\	2.ryy	.	.	4G\	a-	.	.	4b\	A-	4dd\	A-	2.ryy	4b\	4dd\	4b\	4gg\
4GG/	4g\	4b\	.	.	.	4G\	-ma-	.	.	4d\	-ma-	4b\	-ma-	.	4g\	4b\	4r	4r
4r	4g\	4b\	.	.	.	4G\	-tor	.	.	4d\	-tor	4b\	-tor	.	4g\	4b\	4r	4r
=16	=16	=16	=16	=16	=16	=16	=16	=16	=16	=16	=16	=16	=16	=16	=16	=16	=16	=16
4G\	4.g\	4.b\	2.ryy	.	.	4.G\	ho-	.	.	4.d\	ho-	4.b\	ho-	2.ryy	4.g\	4b\	2.r	2.r
4D\	.	.	.	.	.	.	.	.	.	.	.	.	.	.	.	4a\	.	.
!	!	!LO:SIC:s=8cc\	!	!	!	!	!	!	!	!	!	!	!	!	!	!	!	!
.	8a\	8cc#\	.	.	.	8D\	-mi-	.	.	8e\	-mi-	8cc\	-mi-	.	8a\	.	.	.
4GG/	4g\	4b\	.	.	.	4G\	-nis	.	.	4d\	-nis	4b\	-nis	.	4g\	4b\	.	.
=17	=17	=17	=17	=17	=17	=17	=17	=17	=17	=17	=17	=17	=17	=17	=17	=17	=17	=17
!	!	!LO:SIC:s=4cc\	!	!	!	!	!	!	!	!	!	!	!	!	!	!	!	!
4C\	4a\	4cc#\	2.ryy	8cc\L	8ee\L	4C\	ho-	4e\	ho-	4a\	ho-	4cc\	ho-	2.ryy	4a\	4cc\	4cc\	4aa\
.	.	.	.	8a\J	8cc\J	.	.	.	.	.	.	.	.	.	.	.	.	.
4D\	4g\	4b\	.	4g\	4b\	4D\	.	4d\	.	4g\	.	4b\	.	.	4g\	4b\	4b\	4gg\
4DD/	4d\	4a\	.	4f#\	4a\	4D\	-mi-	4d\	-mi-	4f#\	-mi-	4a\	-mi-	.	4d\	4a\	4a\	4ff#\
=18	=18	=18	=18	=18	=18	=18	=18	=18	=18	=18	=18	=18	=18	=18	=18	=18	=18	=18
!	!	!	!	!	!	!	!	!LO:MO:mod=*null:null	!	!	!	!	!	!	!	!	!	!
*	*	*	*	*	*	*	*	*2\right	*	*	*	*	*	*	*	*	*	*
4GG/	4B/	4g\	2.ryy	4B/	4g/	2GG/	-nis	2d\	-nis	2g\	-nis	2g\	-nis	2.ryy	4B/	4g\	4b\	4gg\
4r	4r	4r	.	8ee\L	8gg\L	.	.	.	.	.	.	.	.	.	4r	4r	4r	4r
.	.	.	.	8dd\	8ff#\	.	.	.	.	.	.	.	.	.	.	.	.	.
4G\	4r	4r	.	8cc\	8ee\	4r	.	4r	.	4r	.	4r	.	.	4r	4r	4r	4r
.	.	.	.	8b\J	8dd\J	.	.	.	.	.	.	.	.	.	.	.	.	.
!	!	!	!	!	!	!	!	!	!	!	!	!LO:LB:g=original	!	!	!	!	!	!
=19	=19	=19	=19	=19	=19	=19	=19	=19	=19	=19	=19	=19	=19	=19	=19	=19	=19	=19
!	!	!LO:SIC:s=4cc\	!	!	!	!	!	!	!	!	!	!	!	!	!	!	!	!
4C\	4a\	4cc#\	2.ryy	4a/	4cc\	4C\	ho-	4e\	ho-	4a\	ho-	4cc\	ho-	2.ryy	4a\	4cc\	4cc\	4aa\
4D\	4g\	4b\	.	4g/	4b\	4D\	.	4d\	.	4g\	.	4b\	.	.	4g\	4b\	4b\	4gg\
!	!	!	!	!	!	!	!	!	!	!LO:SIC:l:t=-mi-	!	!	!	!	!	!	!	!
4DD/	4d\	4a\	.	4f#/	4a\	4D\	-mi-	4d\	-mi-	4f#\	-m-	4a\	-mi-	.	4d\	4a\	4a\	4ff#\
!LO:LB:g=original	!	!	!	!	!	!	!	!	!	!LO:LB:g=original	!	!	!	!	!	!	!	!
=20	=20	=20	=20	=20	=20	=20	=20	=20	=20	=20	=20	=20	=20	=20	=20	=20	=20	=20
4GG/	4B/	4g\	2.ryy	4B/	4g/	4GG/	-nis	4d\	-nis	4g\	-nis	4g\	-nis	2.ryy	4B/	4g\	4b\	2gg\
4r	4r	4r	.	8ee\L	8gg\L	4r	.	4r	.	4r	.	4r	.	.	4r	4r	4r	.
.	.	.	.	8dd\	8ff#\	.	.	.	.	.	.	.	.	.	.	.	.	.
4G\	4r	4r	.	8cc\	8ee\	4r	.	4r	.	4r	.	4r	.	.	4r	4r	4r	4r
.	.	.	.	8b\J	8dd\J	.	.	.	.	.	.	.	.	.	.	.	.	.
!	!	!LO:LB:g=original	!	!	!	!LO:LB:g=original	!	!	!	!	!	!	!	!	!	!	!	!
=21	=21	=21	=21	=21	=21	=21	=21	=21	=21	=21	=21	=21	=21	=21	=21	=21	=21	=21
!	!	!LO:SIC:s=4cc\	!	!	!	!	!	!	!	!	!	!	!	!	!	!	!	!LO:TX:t=P:problem=fragment oznaczony znakami repetycji:mod=
4C\	4a\	4cc#\	2.ryy	8cc\L	8ee\L	4C/	ho-	4e\	ho-	8cc\L	ho-	8ee\L	ho-	2.ryy	4a\	4cc\	4cc\	4aa\yy
.	.	.	.	8a\J	8cc\J	.	.	.	.	8a\J	.	8cc\J	.	.	.	.	.	.
4D\	4g\	4b\	.	4g\	4b\	4D/	.	4d\	.	4g\	.	4b\	.	.	4g\	4b\	4b\	4gg\yy
4DD/	4d\	4a\	.	4f#\	4a\	4D/	-mi-	4d\	-mi-	4f#\	-mi-	4a\	-mi-	.	4d\	4a\	4a\	4ff#\yy
!	!LO:LB:g=original	!	!	!	!	!	!	!	!	!	!	!	!	!	!	!	!	!
=22	=22	=22	=22	=22	=22	=22	=22	=22	=22	=22	=22	=22	=22	=22	=22	=22	=22	=22
4GG/	2B/	4g\	2.ryy	2B/	2g/	4GG/	-nis	4d\	-nis	2g\	-nis	2g\	-nis	2.ryy	2B/	4g\	4b\	2ggyy\
4G\	.	4r	.	.	.	4r	.	4r	.	.	.	.	.	.	.	4r	4r	.
!LO:TX:t=P:problem=partia kończy się w t. 22:mod=	!LO:TX:t=P:problem=partia kończy się w t. 22:mod=	!LO:TX:t=P:problem=partia kończy się w t. 22:mod=	!	!LO:TX:t=P:problem=partia kończy się w t. 22:mod=	!LO:TX:t=P:problem=partia kończy się w t. 22:mod=	!	!	!LO:TX:t=P:problem=partia kończy się w t. 22:mod=	!	!LO:TX:t=P:problem=partia kończy się w t. 22:mod=	!	!LO:TX:t=P:problem=partia kończy się w t. 22:mod=	!	!	!LO:TX:t=P:problem=partia kończy się w t. 22:mod=	!LO:TX:t=P:problem=partia kończy się w t. 22:mod=	!LO:TX:t=P:problem=partia kończy się w t. 22:mod=	!LO:TX:t=P:problem=partia kończy się w t. 22:mod=
4GG/	4r	4r	.	4r	4r	4r	.	4r	.	4r	.	4r	.	.	4r	4r	4r	4ryy
!!LO:MO:ori
=23	=23	=23	=23	=23	=23	=23	=23	=23	=23	=23	=23	=23	=23	=23	=23	=23	=23	=23
!	!	!	!	!	!	!LO:TX:t=P:problem=niepotrzebnie powtórzony fragment	!	!	!	!	!	!	!	!	!	!	!	!
!LO:TX:t=P:problem=zbędne powtórzenie taktów w B	!LO:TX:t=P:problem=zbędne powtórzenie taktów w B	!LO:TX:t=P:problem=zbędne powtórzenie taktów w B	!	!LO:TX:t=P:problem=zbędne powtórzenie taktów w B	!LO:TX:t=P:problem=zbędne powtórzenie taktów w B	!LO:TX:t=P:problem=fragment oznaczony znakami repetycji	!	!LO:TX:t=P:problem=zbędne powtórzenie taktów w B	!	!LO:TX:t=P:problem=zbędne powtórzenie taktów w B	!	!LO:TX:t=P:problem=zbędne powtórzenie taktów w B	!	!	!LO:TX:t=P:problem=zbędne powtórzenie taktów w B	!LO:TX:t=P:problem=zbędne powtórzenie taktów w B	!LO:TX:t=P:problem=zbędne powtórzenie taktów w B	!LO:TX:t=P:problem=zbędne powtórzenie taktów w B
2.ryy	2.ryy	2.ryy	2.ryy	2.ryy	2.ryy	4C/yy	ho-	2.ryy	.	2.ryy	.	2.ryy	.	2.ryy	2.ryy	2.ryy	2.ryy	2.ryy
.	.	.	.	.	.	4D/yy	.	.	.	.	.	.	.	.	.	.	.	.
.	.	.	.	.	.	4D/yy	-mi-	.	.	.	.	.	.	.	.	.	.	.
=24	=24	=24	=24	=24	=24	=24	=24	=24	=24	=24	=24	=24	=24	=24	=24	=24	=24	=24
2.ryy	2.ryy	2.ryy	2.ryy	2.ryy	2.ryy	4GGyy/	-nis	2.ryy	.	2.ryy	.	2.ryy	.	2.ryy	2.ryy	2.ryy	2.ryy	2.ryy
.	.	.	.	.	.	4ryy	.	.	.	.	.	.	.	.	.	.	.	.
.	.	.	.	.	.	4ryy	.	.	.	.	.	.	.	.	.	.	.	.
!!LO:MO:end
==	==	==	==	==	==	==	==	==	==	==	==	==	==	==	==	==	==	==
*-	*-	*-	*-	*-	*-	*-	*-	*-	*-	*-	*-	*-	*-	*-	*-	*-	*-	*-
!!!system-decoration: [(g1)][(g2)]<s5>[(g3)][(g4)]<s15>
!!!RDF**kern: > = above
!!!RDF**kern: < = below
!!!RDF**kern: | = vertical stroke
!!!filter-modern: sic -sq | modori -m | autostem -r | tie -s | humtr -p | shed -e "s/yy//" | shed -k -e "s/[<>]//g" 
!!!ENC: Andrzej Kubiczek
!!!END: 2020-10-05
!!!ENC: Wojciech Jakubiak-Danek
!!!END: 2021-11-17
!!!ENC-modern: Andrzej Kubiczek
!!!END-modern: 2022-06-14
